X:1329
T:Creel of Turf, The
O:england
R:Jig
S:Tommy Peoples, Donegal (fiddle)
N:As played
D:Demo tape - 197?
M:6/8
L:1/8
K:D
EBB {d}BAG|FDF AGF|(3.B.B.B B -Bcd|AGF ~E2D|
~B3 {d}BAG|FDF AGF|EBB EBd|AGF ~E2D|
EBB {d}BAG|(3.F.F.D F AGF|(3.E.E.E B EBd|AGF ~E2D|
+EB+ (3.B.B.B {d}BAG|FDF AGF|EBB EBd|AGF ~E2A||
Bee {f}ede|~f3 dBA|~B2e ede|~f3 d2A|
+EB+ (3.e.e.e ede|~f3 dBA|~B3 Bcd|AGF ~E2A:|


